images/icons/dropbox.svg

<svg width="194" height="38" viewBox="0 0 194 38" fill="none" xmlns="http://www.w3.org/2000/svg">
<path d="M23.2271 7.19242L12.0716 14.3131L23.2271 21.4337L12.0716 28.5544L0.916016 21.3744L12.0716 14.2537L0.916016 7.19242L12.0716 0.0717773L23.2271 7.19242ZM12.0122 30.8092L23.1678 23.6886L34.3233 30.8092L23.1678 37.9299L12.0122 30.8092ZM23.2271 21.3744L34.3826 14.2537L23.2271 7.19242L34.3233 0.0717773L45.4788 7.19242L34.3233 14.3131L45.4788 21.4337L34.3233 28.5544L23.2271 21.3744Z" fill="#424147"/>
<path d="M54.1992 7.19217H63.2186C68.9744 7.19217 73.7214 10.5151 73.7214 18.1105V19.7126C73.7214 27.3673 69.2711 30.809 63.3966 30.809H54.1992V7.19217ZM59.2429 11.4646V26.4773H63.0999C66.3635 26.4773 68.559 24.3411 68.559 19.594V18.3479C68.559 13.6008 66.2448 11.4646 62.9219 11.4646H59.2429ZM76.3916 11.7019H80.4266L81.0793 16.1523C81.8507 13.126 83.8089 11.5239 87.3691 11.5239H88.6152V16.627H86.5384C82.4441 16.627 81.4353 18.0512 81.4353 22.0862V30.8683H76.451V11.7019H76.3916ZM89.624 21.6708V21.1368C89.624 14.7282 93.7183 11.2272 99.2961 11.2272C104.993 11.2272 108.968 14.7282 108.968 21.1368V21.6708C108.968 27.9607 105.111 31.343 99.2961 31.343C93.1249 31.2837 89.624 27.9607 89.624 21.6708ZM103.865 21.6115V21.1368C103.865 17.5765 102.085 15.4403 99.2367 15.4403C96.4478 15.4403 94.6084 17.3984 94.6084 21.1368V21.6115C94.6084 25.0531 96.3885 27.0113 99.2367 27.0113C102.085 26.952 103.865 25.0531 103.865 21.6115ZM111.579 11.7019H115.733L116.207 15.3216C117.216 12.8887 119.352 11.2272 122.497 11.2272C127.363 11.2272 130.567 14.7282 130.567 21.1961V21.7302C130.567 28.0201 127.007 31.343 122.497 31.343C119.471 31.343 117.394 29.9783 116.385 27.7827V37.4549H111.52L111.579 11.7019ZM125.523 21.6115V21.1961C125.523 17.3984 123.565 15.4996 120.954 15.4996C118.166 15.4996 116.326 17.6358 116.326 21.1961V21.5522C116.326 24.9345 118.106 27.0707 120.895 27.0707C123.743 27.0113 125.523 25.1718 125.523 21.6115ZM137.925 27.308L137.51 30.809H133.237V5.29333H138.103V15.0842C139.171 12.592 141.307 11.2272 144.334 11.2272C148.903 11.2865 152.285 14.4315 152.285 20.7807V21.3741C152.285 27.7234 149.081 31.343 144.215 31.343C141.011 31.2837 138.934 29.8002 137.925 27.308ZM147.182 21.3741V20.8994C147.182 17.3984 145.283 15.4403 142.613 15.4403C139.883 15.4403 137.984 17.6358 137.984 20.9588V21.3741C137.984 24.9345 139.824 27.0113 142.553 27.0113C145.461 27.0113 147.182 25.1718 147.182 21.3741ZM154.421 21.6708V21.1368C154.421 14.7282 158.515 11.2272 164.093 11.2272C169.79 11.2272 173.765 14.7282 173.765 21.1368V21.6708C173.765 27.9607 169.849 31.343 164.093 31.343C157.922 31.2837 154.421 27.9607 154.421 21.6708ZM168.721 21.6115V21.1368C168.721 17.5765 166.941 15.4403 164.093 15.4403C161.304 15.4403 159.465 17.3984 159.465 21.1368V21.6115C159.465 25.0531 161.245 27.0113 164.093 27.0113C166.941 26.952 168.721 25.0531 168.721 21.6115ZM180.292 20.8994L173.587 11.7019H179.343L183.2 17.4578L187.116 11.7019H192.813L185.989 20.8401L193.169 30.809H187.532L183.141 24.4597L178.868 30.809H172.994L180.292 20.8994Z" fill="#424147"/>
</svg>

<svg width="194" height="38" fill="none" xmlns="http://www.w3.org/2000/svg"><path d="m23.227 7.192-11.155 7.121 11.155 7.12-11.155 7.121-11.156-7.18 11.156-7.12L.916 7.192 12.072.072l11.155 7.12ZM12.012 30.81l11.156-7.12 11.155 7.12-11.155 7.12-11.156-7.12Zm11.215-9.435 11.156-7.12-11.156-7.062L34.323.072l11.156 7.12-11.156 7.121 11.156 7.12-11.156 7.121-11.096-7.18ZM54.2 7.192h9.019c5.755 0 10.502 3.323 10.502 10.918v1.603c0 7.654-4.45 11.096-10.324 11.096h-9.198V7.192Zm5.043 4.273v15.012H63.1c3.264 0 5.459-2.136 5.459-6.883v-1.246c0-4.747-2.314-6.883-5.637-6.883h-3.68Zm17.149.237h4.035l.652 4.45c.772-3.026 2.73-4.628 6.29-4.628h1.246v5.103h-2.077c-4.094 0-5.103 1.424-5.103 5.46v8.781h-4.984V11.702h-.06Zm13.232 9.969v-.534c0-6.409 4.094-9.91 9.672-9.91 5.697 0 9.672 3.501 9.672 9.91v.534c0 6.29-3.857 9.672-9.672 9.672-6.171-.06-9.672-3.382-9.672-9.672Zm14.241-.06v-.474c0-3.56-1.78-5.697-4.628-5.697-2.79 0-4.629 1.958-4.629 5.697v.474c0 3.442 1.78 5.4 4.629 5.4 2.848-.059 4.628-1.958 4.628-5.4Zm7.714-9.91h4.154l.474 3.62c1.009-2.432 3.145-4.094 6.29-4.094 4.866 0 8.07 3.501 8.07 9.97v.533c0 6.29-3.56 9.613-8.07 9.613-3.026 0-5.103-1.365-6.112-3.56v9.672h-4.865l.059-25.753Zm13.944 9.91v-.415c0-3.798-1.958-5.696-4.569-5.696-2.788 0-4.628 2.136-4.628 5.696v.356c0 3.383 1.78 5.519 4.569 5.519 2.848-.06 4.628-1.9 4.628-5.46Zm12.402 5.697-.415 3.501h-4.273V5.293h4.866v9.791c1.068-2.492 3.204-3.857 6.231-3.857 4.569.06 7.951 3.204 7.951 9.554v.593c0 6.35-3.204 9.969-8.07 9.969-3.204-.06-5.281-1.543-6.29-4.035Zm9.257-5.934V20.9c0-3.5-1.899-5.459-4.569-5.459-2.73 0-4.629 2.196-4.629 5.519v.415c0 3.56 1.84 5.637 4.569 5.637 2.908 0 4.629-1.84 4.629-5.637Zm7.239.297v-.534c0-6.409 4.094-9.91 9.672-9.91 5.697 0 9.672 3.501 9.672 9.91v.534c0 6.29-3.916 9.672-9.672 9.672-6.171-.06-9.672-3.382-9.672-9.672Zm14.3-.06v-.474c0-3.56-1.78-5.697-4.628-5.697-2.789 0-4.628 1.958-4.628 5.697v.474c0 3.442 1.78 5.4 4.628 5.4 2.848-.059 4.628-1.958 4.628-5.4Zm11.571-.712-6.705-9.197h5.756l3.857 5.756 3.916-5.756h5.697l-6.824 9.138 7.18 9.969h-5.637l-4.391-6.35-4.273 6.35h-5.874l7.298-9.91Z" fill="#424147"/></svg>
